outputs/icons/navigation/unfold_less_round.svg

<svg xmlns="http://www.w3.org/2000/svg" width="1200" height="1200" fill="none"><g clip-path="url(#a)"><path fill="#000" d="M406.001 965c19.499 19.5 50.999 19.5 70.5 0L600 841.5 723.5 965c19.5 19.5 51 19.5 70.5 0s19.5-51 0-70.5L635.5 736c-19.5-19.5-51-19.5-70.5 0L406.501 894.5c-20.001 19-20.001 51-.5 70.5M794 234.999c-19.5-19.501-51-19.501-70.5 0L600 358.499l-123.499-123.5c-19.501-19.501-51.001-19.501-70.5 0-19.501 19.5-19.501 51.499 0 71l158.499 158.5c19.5 19.5 51 19.5 70.5 0l158.5-158.5c20-19.501 20-51.5.5-71"/></g><defs><clipPath id="a"><path fill="#fff" d="M0 0h1200v1200H0z"/></clipPath></defs></svg>

<svg width="1200" height="1200" viewBox="0 0 1200 1200" fill="none" xmlns="http://www.w3.org/2000/svg"><g clip-path="url(#clip0_316_1642)"><path d="M406.001 965C425.5 984.5 457 984.5 476.501 965L600 841.5L723.5 965C743 984.5 774.5 984.5 794 965C813.5 945.5 813.5 914 794 894.5L635.5 736C616 716.5 584.5 716.5 565 736L406.501 894.5C386.5 913.5 386.5 945.5 406.001 965ZM794 234.999C774.5 215.498 743 215.498 723.5 234.999L600 358.499L476.501 234.999C457 215.498 425.5 215.498 406.001 234.999C386.5 254.499 386.5 286.498 406.001 305.999L564.5 464.499C584 483.999 615.5 483.999 635 464.499L793.5 305.999C813.5 286.498 813.5 254.499 794 234.999Z" fill="black"/></g><defs><clipPath id="clip0_316_1642"><path width="24" fill="white" d="M0 0H1200V1200H0V0z"/></clipPath></defs></svg>
